logos/searce-member.svg

<svg xmlns="http://www.w3.org/2000/svg" viewBox="222.48 165.48 1587.04 411.04" style="isolation:isolate">
	<defs>
		<clipPath id="a">
			<path d="M0 0h1933.333v800H0z"/>
		</clipPath>
	</defs>
	<g clip-path="url(#a)">
		<clipPath id="b">
			<path fill="#FFF" d="M0 0h1933.333v800H0V0Z"/>
		</clipPath>
		<g clip-path="url(#b)">
			<path d="M292.936 363.266c0-26.037 25.556-38.092 50.629-38.092 23.147 0 47.738 9.163 57.862 33.754l26.52-15.431c-13.983-29.893-44.843-49.183-84.382-49.183-48.218 0-82.453 30.379-82.453 68.952 0 88.723 140.797 54.487 140.797 114.278 0 28.449-27.001 38.576-55.45 38.576-32.307 0-57.382-15.914-66.058-40.506l-27.004 15.912c12.056 30.859 44.843 55.454 93.062 55.454 51.593 0 87.274-28.45 87.274-69.436 0-88.72-140.797-54.487-140.797-114.278Z"/>
			<path fill="#0064FF" d="M1722.32 280.387c-14.645 0-26.56-11.915-26.56-26.558 0-14.644 11.915-26.557 26.56-26.557 14.643 0 26.558 11.913 26.558 26.557 0 14.643-11.915 26.558-26.558 26.558Zm0-84.168c-31.768 0-57.612 25.844-57.612 57.61s25.844 57.611 57.612 57.611c31.766 0 57.61-25.845 57.61-57.611s-25.844-57.61-57.61-57.61Z"/>
			<path d="M1176.768 294.225c-38.034 0-72.174 16.908-95.369 43.573v-37.336h-31.052v240.371h31.052V420.647c0-52.588 42.783-95.369 95.369-95.369v-31.053Z"/>
			<path d="M864.633 516.017c-52.586 0-95.369-42.783-95.369-95.369 0-52.588 42.783-95.371 95.369-95.371 52.587 0 95.37 42.783 95.37 95.371 0 52.586-42.783 95.369-95.37 95.369Zm95.37-178.219c-23.195-26.666-57.335-43.573-95.37-43.573-69.709 0-126.421 56.712-126.421 126.423 0 69.709 56.712 126.421 126.421 126.421 38.035 0 72.175-16.908 95.37-43.573v37.336h31.053V300.461h-31.053v37.337Z"/>
			<path d="M585.584 516.017c-36.043 0-67.472-20.1-83.687-49.676h-34.154c18.36 47.184 64.242 80.728 117.841 80.728 44.519 0 83.707-23.151 106.239-58.024l-26.754-15.776c-17.097 25.739-46.337 42.748-79.485 42.748Z"/>
			<path d="M491.498 405.121c7.439-45.227 46.787-79.844 94.085-79.844 47.3 0 86.648 34.617 94.087 79.844H491.498Zm94.085-110.896c-64.449 0-117.752 48.488-125.433 110.896-.627 5.092-.988 10.267-.988 15.527 0 4.953.317 9.833.875 14.64l.113.885h250.851s.069-.399.13-.885c.558-4.807.875-9.687.875-14.64 0-5.26-.36-10.435-.988-15.527-7.681-62.408-60.984-110.896-125.435-110.896"/>
			<path d="M1553.012 516.017c-36.043 0-67.472-20.1-83.687-49.676h-34.156c18.361 47.184 64.244 80.728 117.843 80.728 44.518 0 83.706-23.151 106.238-58.024l-26.754-15.776c-17.096 25.739-46.336 42.748-79.484 42.748Z"/>
			<path d="M1458.926 405.121c7.438-45.227 46.786-79.844 94.085-79.844 47.3 0 86.648 34.617 94.087 79.844h-188.172Zm94.085-110.896c-64.449 0-117.752 48.488-125.435 110.896-.625 5.092-.986 10.267-.986 15.527 0 4.953.316 9.833.873 14.64l.113.885h250.852s.07-.399.131-.885c.557-4.807.875-9.687.875-14.64 0-5.26-.362-10.435-.987-15.527-7.683-62.408-60.987-110.896-125.436-110.896"/>
			<path d="M1295.776 516.017c-52.587 0-95.369-42.783-95.369-95.369 0-52.588 42.782-95.371 95.369-95.371 34.596 0 64.945 18.521 81.664 46.165l26.888-15.505c-22.097-36.927-62.477-61.712-108.552-61.712-69.709 0-126.421 56.712-126.421 126.423 0 69.709 56.712 126.421 126.421 126.421 46.375 0 86.972-25.116 108.972-62.444l-26.828-15.607c-16.611 28.1-47.204 46.999-82.144 46.999Z"/>
		</g>
	</g>
</svg>

<svg xmlns="http://www.w3.org/2000/svg" role="img" viewBox="222.48 165.48 1587.04 411.04"><title>Searce (member) logo</title><style>svg {isolation:isolate}</style><defs><clipPath id="a"><path d="M0 0H1933.333V800H0z"/></clipPath></defs><g clip-path="url(#a)"><g><clipPath id="b"><path fill="#FFF" d="M 0 0 L 1933.333 0 L 1933.333 800 L 0 800 L 0 0 Z"/></clipPath><g clip-path="url(#b)"><g><g><path d="M 292.936 363.266 C 292.936 337.229 318.492 325.174 343.565 325.174 C 366.712 325.174 391.303 334.337 401.427 358.928 L 427.947 343.497 C 413.964 313.604 383.104 294.314 343.565 294.314 C 295.347 294.314 261.112 324.693 261.112 363.266 C 261.112 451.989 401.909 417.753 401.909 477.544 C 401.909 505.993 374.908 516.12 346.459 516.12 C 314.152 516.12 289.077 500.206 280.401 475.614 L 253.397 491.526 C 265.453 522.385 298.24 546.98 346.459 546.98 C 398.052 546.98 433.733 518.53 433.733 477.544 C 433.733 388.824 292.936 423.057 292.936 363.266 Z"/></g><g><path fill="#0064FF" d="M 1722.32 280.387 C 1707.675 280.387 1695.76 268.472 1695.76 253.829 C 1695.76 239.185 1707.675 227.272 1722.32 227.272 C 1736.963 227.272 1748.878 239.185 1748.878 253.829 C 1748.878 268.472 1736.963 280.387 1722.32 280.387 Z M 1722.32 196.219 C 1690.552 196.219 1664.708 222.063 1664.708 253.829 C 1664.708 285.595 1690.552 311.44 1722.32 311.44 C 1754.086 311.44 1779.93 285.595 1779.93 253.829 C 1779.93 222.063 1754.086 196.219 1722.32 196.219 Z"/></g><g><path d="M 1176.768 294.225 C 1138.734 294.225 1104.594 311.133 1081.399 337.798 L 1081.399 300.462 L 1050.347 300.462 L 1050.347 540.833 L 1081.399 540.833 L 1081.399 420.647 C 1081.399 368.059 1124.182 325.278 1176.768 325.278 L 1176.768 294.225 Z"/></g><g><path d="M 864.633 516.017 C 812.047 516.017 769.264 473.234 769.264 420.648 C 769.264 368.06 812.047 325.277 864.633 325.277 C 917.22 325.277 960.003 368.06 960.003 420.648 C 960.003 473.234 917.22 516.017 864.633 516.017 Z M 960.003 337.798 C 936.808 311.132 902.668 294.225 864.633 294.225 C 794.924 294.225 738.212 350.937 738.212 420.648 C 738.212 490.357 794.924 547.069 864.633 547.069 C 902.668 547.069 936.808 530.161 960.003 503.496 L 960.003 540.832 L 991.056 540.832 L 991.056 300.461 L 960.003 300.461 L 960.003 337.798 Z"/></g><g><path d="M 585.584 516.017 C 549.541 516.017 518.112 495.917 501.897 466.341 L 467.743 466.341 C 486.103 513.525 531.985 547.069 585.584 547.069 C 630.103 547.069 669.291 523.918 691.823 489.045 L 665.069 473.269 C 647.972 499.008 618.732 516.017 585.584 516.017 Z"/></g><g><path d="M 491.498 405.121 C 498.937 359.894 538.285 325.277 585.583 325.277 C 632.883 325.277 672.231 359.894 679.67 405.121 L 491.498 405.121 Z M 585.583 294.225 C 521.134 294.225 467.831 342.713 460.15 405.121 C 459.523 410.213 459.162 415.388 459.162 420.648 C 459.162 425.601 459.479 430.481 460.037 435.288 L 460.15 436.173 L 711.001 436.173 C 711.001 436.173 711.07 435.774 711.131 435.288 C 711.689 430.481 712.006 425.601 712.006 420.648 C 712.006 415.388 711.646 410.213 711.018 405.121 C 703.337 342.713 650.034 294.225 585.583 294.225"/></g><g><path d="M 1553.012 516.017 C 1516.969 516.017 1485.54 495.917 1469.325 466.341 L 1435.169 466.341 C 1453.53 513.525 1499.413 547.069 1553.012 547.069 C 1597.53 547.069 1636.718 523.918 1659.25 489.045 L 1632.496 473.269 C 1615.4 499.008 1586.16 516.017 1553.012 516.017 Z"/></g><g><path d="M 1458.926 405.121 C 1466.364 359.894 1505.712 325.277 1553.011 325.277 C 1600.311 325.277 1639.659 359.894 1647.098 405.121 L 1458.926 405.121 Z M 1553.011 294.225 C 1488.562 294.225 1435.259 342.713 1427.576 405.121 C 1426.951 410.213 1426.59 415.388 1426.59 420.648 C 1426.59 425.601 1426.906 430.481 1427.463 435.288 L 1427.576 436.173 L 1678.428 436.173 C 1678.428 436.173 1678.498 435.774 1678.559 435.288 C 1679.116 430.481 1679.434 425.601 1679.434 420.648 C 1679.434 415.388 1679.072 410.213 1678.447 405.121 C 1670.764 342.713 1617.46 294.225 1553.011 294.225"/></g><g><path d="M 1295.776 516.017 C 1243.189 516.017 1200.407 473.234 1200.407 420.648 C 1200.407 368.06 1243.189 325.277 1295.776 325.277 C 1330.372 325.277 1360.721 343.798 1377.44 371.442 L 1404.328 355.937 C 1382.231 319.01 1341.851 294.225 1295.776 294.225 C 1226.067 294.225 1169.355 350.937 1169.355 420.648 C 1169.355 490.357 1226.067 547.069 1295.776 547.069 C 1342.151 547.069 1382.748 521.953 1404.748 484.625 L 1377.92 469.018 C 1361.309 497.118 1330.716 516.017 1295.776 516.017 Z"/></g></g></g></g></g></svg>
